X:87
T:Lo Postroulletto E Lou Tchibalh
M:2/4
L:1/8
N:Anim
N:La Bourre 4th edition 1929, page 85
Z:Steve Mansfield www.lesession.co.uk June 2012
K:C
G G | c B c d |[M:3/4] (fe) d2 c d | 
(fe) d4 ||[M:2/4] z2 G G | c B c d |
[M:3/4] (fe) d2 c d | (fe) (d4 ||[M:2/4] d) z c d/ e/ | 
f f e d | e c c c | d4 | z2 c d/ e/ | 
f f e d ||[M:3/4] e c d2 A B | c6 |]
<end>
<start>
